fs/cloud_swap_24_filled.svg

<svg viewBox="0 0 24 24" fill="none" xmlns="http://www.w3.org/2000/svg" height="1em" width="1em">
  <path d="M11.75 4.25C8.92458 4.25 6.56096 6.29276 6.08664 9L6.00002 9C3.79086 9 2 10.7909 2 13C2 15.2091 3.79086 17 6 17H9.16833C8.86029 16.3503 8.97503 15.5501 9.51256 15.0126L12.0126 12.5126C12.696 11.8291 13.804 11.8291 14.4874 12.5126C15.025 13.0501 15.1397 13.8503 14.8317 14.5H17.1683C16.8603 13.8503 16.975 13.0501 17.5126 12.5126C18.196 11.8291 19.304 11.8291 19.9874 12.5126L21.3939 13.919C21.4633 13.624 21.5 13.3163 21.5 13C21.5 10.7909 19.7091 9 17.5 9L17.4134 9C16.939 6.29276 14.5754 4.25 11.75 4.25ZM13.7803 14.2803C14.0732 13.9874 14.0732 13.5126 13.7803 13.2197C13.4874 12.9268 13.0126 12.9268 12.7197 13.2197L10.2197 15.7197C9.92678 16.0126 9.92678 16.4874 10.2197 16.7803L12.7197 19.2803C13.0126 19.5732 13.4874 19.5732 13.7803 19.2803C14.0732 18.9874 14.0732 18.5126 13.7803 18.2197L12.5607 17H19.4393L18.2197 18.2197C17.9268 18.5126 17.9268 18.9874 18.2197 19.2803C18.5126 19.5732 18.9874 19.5732 19.2803 19.2803L21.7803 16.7803C22.0732 16.4874 22.0732 16.0126 21.7803 15.7197L19.2803 13.2197C18.9874 12.9268 18.5126 12.9268 18.2197 13.2197C17.9268 13.5126 17.9268 13.9874 18.2197 14.2803L19.4393 15.5H12.5607L13.7803 14.2803Z" fill="#212121"/>
</svg>

<svg viewBox="0 0 24 24" fill="none" xmlns="http://www.w3.org/2000/svg" height="1em" width="1em">
  <path d="M11.75 4.25A5.752 5.752 0 0 0 6.087 9H6a4 4 0 0 0 0 8h3.168a1.75 1.75 0 0 1 .345-1.987l2.5-2.5a1.75 1.75 0 0 1 2.819 1.987h2.336a1.75 1.75 0 0 1 2.82-1.987l1.406 1.406A4 4 0 0 0 17.5 9h-.087a5.752 5.752 0 0 0-5.663-4.75Zm2.03 10.03a.75.75 0 1 0-1.06-1.06l-2.5 2.5a.75.75 0 0 0 0 1.06l2.5 2.5a.75.75 0 1 0 1.06-1.06L12.56 17h6.88l-1.22 1.22a.75.75 0 1 0 1.06 1.06l2.5-2.5a.75.75 0 0 0 0-1.06l-2.5-2.5a.75.75 0 1 0-1.06 1.06l1.22 1.22h-6.88l1.22-1.22Z" fill="#212121"/>
</svg>
